X:537
T:Cumberland square eight
O:Ireland
M:2/4
L:1/8
Q:1/4=
K:C
V:1
c/B/ |"C" cC EG |c3 c/B/|c CE G|
"G7" d3 c/B/|"C" c C"C7" E G|"F" A fe d|"D7" c/B/ A/G/"G7" A B|
|1 "C" c3 :|2 "C" c3 e/f/||  |:"C" g3/2 e/"G7" f3/2 d/|"C" ec ce/f/ |
"C" g3/2 e/"F" f3/2 g/|"Dm" ad de/f/ |"C" g3/2 e/"G" f3/2 d/|"Am" e3/2 c/d3/2 "Em" c/|
"F" c/B/A/ G/"G7" AB |1 "C" c3 e/f/:|2 "C" c3 ||
